X:1
T:Local attachment—or, the bonny plains of Murray
L:1/8
Q:1/4=88
M:4/4
I:linebreak $
K:Eb
V:1 treble 
V:1
"^Andante" B, | E>G FF G>B [FA][FA] | GEBG AGFE | DEFG [B,F]2 z2 | E>G FF G>B [FA][FA] | %5
 GEBG AFGE |$ DAFD [G,E]3 :| B | [Ge]2 BG AGFE | FGAc [GB]2 z2 | [Ac]2 BA AGFE | DEFG [B,F]2 z2 | %12
 [EG]2 B,G, B,EEG |$ [GB]2 GE GBBe | ABcd edcB | A>ce>c{c} B2 z2 | [Ac]2 TBA GBeg | %17
 [FA]2 TBA GBBe | AecA GeBG |$ DAFD [G,E]3 || %20
